X:11011
T:Keeper Would a Hunting Go, The
R:March
C:Trad.
O:England
Z:Paul Hardy's Session Tunebook 2015 (see www.paulhardy.net). Creative Commons cc by-nc-sa licenced.
M:4/4
L:1/8
Q:1/4=160
K:D
A2|"D" F2 G2 A2 A2|"G" B2 d2 "A"A3 A|"D" F2 GG A2 A2|"G" BB d2 "A"A4|"D" d2 AA d2 AA|dd AA F3 E|D2 d2 A2 GF|"A" E4 "D"D2 z2||
"D" FG A2 F2 A2|FG A2 FG A2|d2 A2 d2 A2|"G" FGFG "A"E3E|"D" D2 d2 A2 GF|"A" E4 "D"D2 AG|
"D" F2 "G"G2 "A"A2 AG|"D" F2 "G"G2 "A"A4|"D" d2 A2 d2 A2|"G" FGFG "A"E3E|"D" D2 d2 "A"A2 "G"GF|"A" E4 "D"D2|]

